Sources/FrostedUI/Resources/Icons.xcassets/rocket16.imageset/rocket-16.svg

<svg width="16" height="16" viewBox="0 0 16 16" fill="none" xmlns="http://www.w3.org/2000/svg" data-fui-icon="true">
  <path
    d="M3.96265 12.5009C4.2514 12.2041 4.72628 12.1975 5.02319 12.4862C5.31988 12.775 5.32643 13.2499 5.03784 13.5468L3.92651 14.6893C3.63777 14.9862 3.16293 14.9927 2.86597 14.704C2.56924 14.4152 2.56267 13.9403 2.85132 13.6434L3.96265 12.5009ZM2.4812 10.9774C2.76994 10.6805 3.24477 10.6731 3.54175 10.9618C3.83865 11.2504 3.84488 11.7253 3.5564 12.0223L1.70483 13.9276C1.41613 14.2246 0.941285 14.2309 0.644287 13.9423C0.347326 13.6536 0.340007 13.1787 0.628662 12.8817L2.4812 10.9774ZM13.5945 1.10828C14.3507 1.1328 14.9495 1.78348 14.8884 2.55847C14.6863 5.11543 13.4187 7.09038 11.5837 8.83679V11.4374C11.5837 11.9558 11.3003 12.4332 10.8455 12.6815L8.51147 13.954C7.56759 14.4685 6.41675 13.7852 6.41675 12.7098V11.7362L4.26343 9.58289H3.28979C2.21448 9.58288 1.53091 8.43214 2.04565 7.48816L3.31909 5.15515L3.42261 4.99207C3.68727 4.63334 4.10895 4.41696 4.56226 4.41687H7.16187C8.90848 2.58138 10.8838 1.3134 13.4412 1.11121L13.5945 1.10828ZM7.91675 11.788V12.5702L10.0837 11.3876V10.0663L7.91675 11.788ZM13.3728 2.62683C11.3099 2.84352 9.65557 3.91418 8.05444 5.65613L5.5769 8.77527L7.22339 10.4218L10.3425 7.94519C12.0849 6.34383 13.1562 4.69016 13.3728 2.62683ZM3.43042 8.08289H4.21265L5.93335 5.91687H4.61108L3.43042 8.08289ZM10.8279 4.0155C11.4492 4.0155 11.9528 4.51924 11.9529 5.1405C11.9529 5.76182 11.4492 6.2655 10.8279 6.2655C10.2067 6.26533 9.70288 5.76172 9.70288 5.1405C9.70295 4.51935 10.2067 4.01567 10.8279 4.0155Z"
    fill="currentColor"
  />
</svg>

<svg xmlns="http://www.w3.org/2000/svg" width="16" height="16" fill="none" data-fui-icon="true" viewBox="0 0 16 16"><path fill="currentColor" d="M3.963 12.5a.75.75 0 0 1 1.075 1.047l-1.111 1.142a.75.75 0 0 1-1.076-1.046zM2.48 10.978a.75.75 0 1 1 1.075 1.045l-1.851 1.906a.75.75 0 0 1-1.076-1.046zm11.114-9.869a1.343 1.343 0 0 1 1.293 1.45c-.202 2.557-1.47 4.532-3.304 6.279v2.6c0 .519-.284.996-.739 1.245l-2.334 1.272a1.417 1.417 0 0 1-2.094-1.244v-.974L4.263 9.583H3.29a1.417 1.417 0 0 1-1.244-2.095l1.273-2.333.104-.163a1.42 1.42 0 0 1 1.14-.575h2.599c1.746-1.836 3.722-3.104 6.28-3.306zm-5.678 10.68v.782l2.167-1.182v-1.322zm5.456-9.161c-2.063.217-3.717 1.287-5.319 3.03L5.577 8.774l1.646 1.647 3.12-2.477c1.742-1.601 2.813-3.255 3.03-5.318M3.43 8.083h.783l1.72-2.166H4.611zm7.398-4.067a1.125 1.125 0 1 1 0 2.25 1.125 1.125 0 0 1 0-2.25"/></svg>
